!!!COM: De L'Isle, Claude-Joseph Rouget
!!!CDT: b. 1928
!!!OTL: National Anthem, France (La Marseillaise)
!!!ENC: Davis, Matthew J.
!!Vocal Line Only
**kern
*clefG2
*k[f#]
*G:
*M4/4
=1-
2r
8r
16r
16d
8.d
16d
=2
4g
4g
4a
4a
=3
4.dd
8b
8g
16r
16g
8.b
16g
=4
4e
2cc
8.a
16f#
=5
2g
4r
8.g
16a
=6
4b
4b
4b
8.cc
16b
=7
4b
4b
4r
8.f
16b
=8
4cc
4cc
4cc
8.dd
16cc
=9
2b
4r
8.dd
16dd
=10
4dd
8.b
16g
8.b
16g
=11
2d
8r
16r
16d
8.d
16f#
=12
2a
4cc
8.a
16f#
=13
4a
4g
2fn
=14
4e
8.g
16g
4g
8.f#
16g
=15
2.a
8r
8a
=16
4.b-
8b-
8b-
8b-
8cc
8dd
=17
2.a
8b-
8a
=18
4.g
8g
8g
8b-
8a
8g
=19
4g
8f#
8r
4r
8r
16r
16dd
==20
[2dd
8.dd]
16dd
8.dd
16g
=21
2.a
8r
16r
16dd
=22
[2dd
8.dd]
16dd
8.b
16g
=23
[2a
8a]
8r
4d
=24
2g
4r
4a
=25
2b
2r
=26
2cc
4dd
4ee
=27
[2a
8a]
8r
4ee
=28
[2dd
8.dd]
16b
8.cc
16a
=29
2.g
4r
!This Anthem has three verses.  Repeat as desired.
==
*-
